Adwaita++-Light/panel/24/slack-indicator.svg

<svg height="24" width="24" xmlns="http://www.w3.org/2000/svg">
  <path d="m9.5 4.9999998c-.825582 0-1.5.674419-1.5 1.5 0 .8255815.674418 1.5 1.5 1.5h1.500001v-1.5c0-.825581-.67442-1.5-1.500001-1.5zm4.001953 0c-.825581 0-1.5.6732269-1.5 1.4980469v4.0039063c0 .82482.674419 1.498047 1.5 1.498047.825583 0 1.5-.673227 1.5-1.498047v-4.0039063c0-.82482-.674417-1.4980469-1.5-1.4980469zm-8.003906 4c-.82482 0-1.498047.6744182-1.498047 1.5000002 0 .825581.673227 1.5 1.498047 1.5h4.003907c.82482 0 1.498046-.674419 1.498046-1.5 0-.825582-.673226-1.5000002-1.498046-1.5000002zm12.003906 0c-.825581 0-1.499999.6744182-1.499999 1.5000002v1.5h1.499999c.82558 0 1.5-.674419 1.5-1.5 0-.825582-.67442-1.5000002-1.5-1.5000002zm-12.001953 4.0000002c-.825581 0-1.5.674419-1.5 1.5 0 .825582.674419 1.5 1.5 1.5.825582 0 1.5-.674418 1.5-1.5v-1.5zm4 0c-.825581 0-1.5.673227-1.5 1.498047v4.003906c0 .82482.674419 1.498047 1.5 1.498047s1.500001-.673227 1.500001-1.498047v-4.003906c0-.82482-.67442-1.498047-1.500001-1.498047zm3.998048 0c-.824821 0-1.498047.674419-1.498047 1.5s.673227 1.5 1.498047 1.5h4.003905c.824819 0 1.498047-.674419 1.498047-1.5s-.673228-1.5-1.498047-1.5zm-1.498047 4v1.5c0 .825581.674419 1.5 1.5 1.5.825582 0 1.5-.674419 1.5-1.5s-.674418-1.5-1.5-1.5z" fill="#444"/>
</svg>

<svg xmlns="http://www.w3.org/2000/svg" width="24" height="24" version="1.1">
 <defs>
  <style id="current-color-scheme" type="text/css">
   .ColorScheme-Text { color:#444444; } .ColorScheme-Highlight { color:#4285f4; }
  </style>
 </defs>
 <path style="fill:currentColor" class="ColorScheme-Text" d="m 9.5,4.9999998 c -0.825582,0 -1.5,0.674419 -1.5,1.5 0,0.8255815 0.674418,1.5 1.5,1.5 h 1.500001 v -1.5 c 0,-0.825581 -0.67442,-1.5 -1.500001,-1.5 z m 4.001953,0 c -0.825581,0 -1.5,0.6732269 -1.5,1.4980469 v 4.0039063 c 0,0.82482 0.674419,1.498047 1.5,1.498047 0.825583,0 1.5,-0.673227 1.5,-1.498047 V 6.4980467 c 0,-0.82482 -0.674417,-1.4980469 -1.5,-1.4980469 z m -8.003906,4 C 4.673227,8.9999998 4,9.674418 4,10.5 4,11.325581 4.673227,12 5.498047,12 H 9.501954 C 10.326774,12 11,11.325581 11,10.5 11,9.674418 10.326774,8.9999998 9.501954,8.9999998 Z m 12.003906,0 c -0.825581,0 -1.499999,0.6744182 -1.499999,1.5000002 V 12 h 1.499999 c 0.82558,0 1.5,-0.674419 1.5,-1.5 0,-0.825582 -0.67442,-1.5000002 -1.5,-1.5000002 z M 5.5,13 C 4.674419,13 4,13.674419 4,14.5 4,15.325582 4.674419,16 5.5,16 6.325582,16 7,15.325582 7,14.5 V 13 Z m 4,0 C 8.674419,13 8,13.673227 8,14.498047 v 4.003906 C 8,19.326773 8.674419,20 9.5,20 c 0.825581,0 1.500001,-0.673227 1.500001,-1.498047 V 14.498047 C 11.000001,13.673227 10.325581,13 9.5,13 Z m 3.998048,0 c -0.824821,0 -1.498047,0.674419 -1.498047,1.5 0,0.825581 0.673227,1.5 1.498047,1.5 h 4.003905 C 18.326772,16 19,15.325581 19,14.5 19,13.674419 18.326772,13 17.501953,13 Z m -1.498047,4 v 1.5 c 0,0.825581 0.674419,1.5 1.5,1.5 0.825582,0 1.5,-0.674419 1.5,-1.5 0,-0.825581 -0.674418,-1.5 -1.5,-1.5 z"/>
</svg>
